X: 36506
T: Sergeant Early's
R: jig
M: 6/8
K: Dmajor
F|FED EFG|AGE =c2e|dcA efd|ecA ~A2G|
FED EFG|AGE cde|dcA GEA|DED D2:|
d|cBA Bcd|efe e2e|dB/c/d efd|ecA A2d|
cBA Bcd|eag e2d|dcA GEA|DED D2:|

